X:1
T:Title
%%score { ( 1 3 ) | 2 }
L:1/8
M:4/4
K:Bb
V:1 treble nm="Grand Piano"
V:3 treble 
V:2 bass 
V:1
 z4 z2 z[Q:1/4=90] [DF] | [Fd][Fd][Fd][Fc] [DB][DF][_D=E][=DF] | [EG][EG][Ge][Gc] G3 G | %3
 AAAG FFc_d | [Fd]6 z [DF] | [Fd][Fd][Fd][Ec] [DB][DF][_D=E][=DF] |[M:7/8] [EG][EG][Ge] [Gc] G3 | %7
[M:1/8] G |[M:4/4] AAAG FFcd | [DB]6 z2 | [B,D][CE][_D=E][=DF] [Fd][DB][DA][DG] | A6 z2 | %12
 c=BcB dcGA | F6 z2 | D[CE][_D=E][=DF] [Fd][DB][EA][F_A] | %15
[M:9/8] [EG][Ec][F=B] [Fd] [Ec]2- [Ec]_BG | GF=E F[EG][EB]- [EB]/[_EA][Ec]3/2 | %17
[M:7/8] [DB]-[DB]-[DB]- [DB]3 z |] %18
V:2
 z4 z2 z [B,,B,] | [B,,B,][B,,B,][F,A,][F,A,] [B,,B,][B,,B,][B,,B,][B,,B,] | %2
 [E,B,][E,B,][E,B,][E,B,] [E,B,E]3 [E,CE] | %3
 [F,CE][F,CE][F,CE][F,B,E] [F,A,E][F,A,E][F,A,E][F,A,=E] | [B,,B,]6 z [B,,B,] | %5
 [B,,B,][B,,B,][F,A,][E,A,] [B,,B,][B,,B,][B,,B,][B,,B,] | %6
[M:7/8] [E,B,][E,B,][E,B,] [E,B,] [E,B,E]3 |[M:1/8] [E,CE] | %8
[M:4/4] [F,CE][F,CE][F,CE][F,B,E] [F,A,E][F,A,E][F,A,E][F,A,F] | [B,,B,]6 z2 | %10
 [B,,F,][B,,F,][B,,B,][B,,B,] [B,,B,][B,,B,][B,,B,][B,,B,] | [F,CE]6 z2 | %12
 [F,A,E][F,_A,D][F,=A,E][F,_A,D] [F,=A,F][F,A,E][F,A,E][F,A,E] | %13
 [B,,B,]2 [F,A,][F,A,] [B,,B,]2 z2 | [B,,F,B,][B,,F,][B,,F,][B,,B,] [B,,B,][B,,B,][C,F,][D,B,] | %15
[M:9/8] [E,B,][E,G,][D,G,] [D,G,] [C,G,]2- [C,G,][=E,G,_D][E,B,D] | %16
 [F,B,D][F,B,D][G,B,_D] [F,B,=D][C,C][C,C]- [C,C]/[F,C][F,A,]3/2 | %17
[M:7/8] [B,,B,]-[B,,B,]-[B,,B,]- [B,,B,]3 z |] %18
V:3
 x8 | x8 | x8 | x8 | x8 | x8 |[M:7/8] x7 |[M:1/8] x |[M:4/4] x8 | x8 | x8 | x8 | x8 | D2 EE D2 z2 | %14
 x8 |[M:9/8] x9 | x9 |[M:7/8] x7 |] %18

